icons/biohazard.svg

<svg width="24" height="24" viewBox="0 0 24 24" fill="none" xmlns="http://www.w3.org/2000/svg">
<path fill-rule="evenodd" clip-rule="evenodd" d="M8.07179 2.80382C8.55008 3.07996 8.71396 3.69155 8.43782 4.16984C7.33325 6.08301 7.98875 8.52938 9.90192 9.63395L10.0505 9.7197C10.5748 9.27098 11.2557 8.99997 12 8.99997C12.7443 8.99997 13.4252 9.27099 13.9496 9.71973L14.0981 9.634C16.0112 8.52943 16.6667 6.08307 15.5622 4.16989C15.286 3.6916 15.4499 3.08001 15.9282 2.80387C16.4065 2.52773 17.0181 2.6916 17.2942 3.16989C18.3377 4.97726 18.334 7.10187 17.4714 8.84112C19.4089 8.96369 21.2507 10.0228 22.2942 11.8301C22.5704 12.3084 22.4065 12.92 21.9282 13.1962C21.4499 13.4723 20.8383 13.3084 20.5622 12.8301C19.4576 10.917 17.0112 10.2615 15.0981 11.366L14.95 11.4515C14.9828 11.6294 15 11.8127 15 12C15 13.3062 14.1652 14.4174 13 14.8293V15C13 17.2091 14.7909 19 17 19C17.5523 19 18 19.4477 18 20C18 20.5523 17.5523 21 17 21C14.913 21 13.0749 19.9345 12 18.3178C10.9251 19.9345 9.08697 21 6.99999 21C6.44771 21 5.99999 20.5523 5.99999 20C5.99999 19.4477 6.44771 19 6.99999 19C9.20913 19 11 17.2091 11 15V14.8293C9.8348 14.4174 8.99999 13.3062 8.99999 12C8.99999 11.8126 9.01716 11.6293 9.05002 11.4515L8.90192 11.366C6.98875 10.2614 4.54239 10.9169 3.43782 12.8301C3.16167 13.3084 2.55008 13.4723 2.07179 13.1961C1.5935 12.92 1.42962 12.3084 1.70577 11.8301C2.74925 10.0227 4.59106 8.96364 6.52862 8.84107C5.66599 7.10182 5.66228 4.97721 6.70577 3.16984C6.98191 2.69155 7.5935 2.52768 8.07179 2.80382ZM11.1272 11.5116C11.0462 11.656 11 11.8226 11 12C11 12.5523 11.4477 13 12 13C12.5523 13 13 12.5523 13 12C13 11.8231 12.9541 11.6569 12.8734 11.5127C12.8709 11.5085 12.8685 11.5043 12.866 11.5C12.8637 11.496 12.8614 11.492 12.8592 11.488C12.6847 11.1957 12.3652 11 12 11C11.6343 11 11.3145 11.1962 11.1401 11.4891C11.1381 11.4927 11.1361 11.4964 11.134 11.5C11.1317 11.5039 11.1295 11.5077 11.1272 11.5116Z" fill="black"/>
</svg>

<svg
  width="24"
  height="24"
  viewBox="0 0 24 24"
  xmlns="http://www.w3.org/2000/svg"
>
  <path
    fill-rule="evenodd"
    clip-rule="evenodd"
    d="M8.072 2.804a1 1 0 0 1 .366 1.366 4 4 0 0 0 1.464 5.464l.149.086A2.988 2.988 0 0 1 12 9c.744 0 1.425.271 1.95.72l.148-.086a4 4 0 0 0 1.464-5.464 1 1 0 1 1 1.732-1 5.994 5.994 0 0 1 .177 5.671 5.995 5.995 0 0 1 4.823 2.99 1 1 0 1 1-1.732 1 4 4 0 0 0-5.464-1.465l-.148.085A3.001 3.001 0 0 1 13 14.83V15a4 4 0 0 0 4 4 1 1 0 1 1 0 2 5.994 5.994 0 0 1-5-2.682A5.994 5.994 0 0 1 7 21a1 1 0 1 1 0-2 4 4 0 0 0 4-4v-.17a3.001 3.001 0 0 1-1.95-3.379l-.148-.085a4 4 0 0 0-5.464 1.464 1 1 0 1 1-1.732-1 5.994 5.994 0 0 1 4.823-2.989 5.994 5.994 0 0 1 .177-5.671 1 1 0 0 1 1.366-.366zm3.055 8.708a1 1 0 1 0 1.746.001l-.007-.013-.007-.012a1 1 0 0 0-1.719.001l-.006.011-.007.012z"
  />
</svg>
